X:158
T:Sonata K.490 in D Major
C:Scarlatti, D.
M:3/4
L:1/8
Q:1/4=92
K:D
|:A2|d4 de|f2 ef g2|a4 ag|f4 e2|
d4 ef|g2 fg a2|b4 ag|f4:|

